X: 3228
T: COUNTY DOWN
%R: jig
B: James Kerr "Merry Melodies" v.3 p.26 #228
Z: 2016 John Chambers <jc:trillian.mit.edu>
M: 6/8
L: 1/8
K: A
uA |\
   EAA ABc | BAA A2c |\
[1 EAA ABc | dBB B2e :|\
[2 efg a2e | cAA A2 |:\
e |\
   ecA Ace | efg a2f |\
[1 ecA ABc | dBB B2 :|\
[2 efg a2e | cAA A2 |]

%%sep 1 1 500
%%sep 1 1 500

